X:1
T:Piano Sonata in D, No. 18
T:Sonate in D 
T:W. A. Mozart
T:KV 576
C:W. A. Mozart
%%score { ( 1 4 ) | ( 2 3 ) }
L:1/8
Q:3/8=84
M:6/8
K:D
V:1 treble nm="Piano" snm="Pno."
V:4 treble 
V:2 bass 
V:3 bass 
V:1
"^Allegro"!f!"_[   ]" A, | DA,D FDF | A2 A A2!mp! (!fermata!Tc/B/4c/4 | %3
 d) z (!fermata!Te/d/4e/4 f) z (a/g/) | (f3 e) z!f! B, | EB,E GEG | B2 B B2!mp! ^d | %7
 (f/e/g/f/a/g/) b z c | (e3!p! d) z!f! z | z df afd'- | d'/c'/e'/d'/c'/b/ a/b/a/g/f/e/ | %11
 f/a/f/d/c/A/ d/c/d/f/e/g/ | (d3!mp! c) z!f! z | z eg bge'- | e'/^d'/=c'/b/a/g/ f/e/^d/=c/B/A/ | %15
 G/B/e/B/g/e/ bB^c | d2 z z!mf! (d'/c'/b/a/) | (^g/a/g/a/b/a/) z (a/=g/f/e/) | %18
 (c/d/c/d/e/d/) z (d'/c'/b/a/) | (^g/a/g/a/b/a/) z (a/=g/f/e/) | c/d/c/d/g/f/ ^d/e/d/e/a/g/ | %21
 ^e/f/e/f/b/a/ a/g/f/=e/!courtesy!=d/c/ | c/d/c/d/g/f/ ^d/e/d/e/a/g/ | %23
 ^e/f/e/f/b/a/ a/g/f/=e/!courtesy!=d/c/ |!mf! z/ d/f/a/d'/c'/ z/ B/d/f/b/a/ | %25
 z/ G/B/d/g/f/ z/ E/G/B/e/d/ | ca[df] [ce]a[df] | [ce]aA A z e | aea c'ac' | %29
 e'/d'/c'/b/^a/^g/ f/e/d/c/B/^A/ | BFB dBd | f/e/d/c/B/^A/ d/c/B/=A/^G/F/ | EB,E ^GEG | %33
 B/c/d/c/B/A/ ^G/F/E/F/D/E/ | C/!mp!E/^D/E/F/E/ A/E/D/E/F/E/ | B,/E/^D/E/C/E/ =D/E/C/E/B,/E/ | %36
 C/E/^D/E/F/E/ A/E/D/E/F/E/ | B,/E/^D/E/C/E/ =D/E/C/E/B,/E/ | %38
!<(! z/ C/E/A/c/e/!<)!!mf! a/^g/f/e/d/c/ | z/ ^A/B/c/d/e/ f/e/d/c/B/=A/ | E/c/A/e/c/a/ B3({AB)} | %41
 AA,A, A, z!mp!"_dol   ce" (c | d2 e) f(e/d/c/B/) | (A3 ^G2) F | (FE)E EA[Ac] | (c2 d) B z (c | %46
 d)(d/c/e/d/ f/e/d/c/d/B/) | (A/^G/B/A/c/B/ d/c/e/d/f/e/) | (e/a/^g/=g/f/=f/ e/a/^g/=g/^f/=f/) | %49
 (e3 ^e3 | f) z (f/^g/ a/^e/f/c/d/B/) | A6 | !fermata![Ac]3{!fermata!c} !fermata!B.A.B | %53
 A z!f! ^d/e/ f/e/=d/c/B/A/ | ^G/A/B/c/d/e/ f/^g/a/b/c'/d'/ | c' z ^d/e/ f/e/=d/c/B/A/ | %56
 ^G/F/E/F/G/A/ B/c/d/e/f/^g/ | (aec' aec') | a2 z z2 :| !fermata!z |!p! (ae=c' aec') | a2 z z2 z | %62
!f! (a_e=c' aec') | a2 z z2 =F | _B!courtesy!=FB dBd | =f2 f f2 _b | %66
 a/g/=f/g/a/_b/ =c'/b/a/b/c'/d'/ | _e'=fe'- e'fe'- | %68
 e'/=f'/!courtesy!_e'/d'/!courtesy!=c'/_b/ a/b/a/g/=f/_e/ | d/_e/d/=c'/e/c'/ d/e/d/c'/e/c'/ | %70
 d/=c'/a/g/^f/_e/ d/e/d/=c/_B/A/ | G z D GDG | _BGB d2 d | d2 g ^f/e/f/d/_b | a z a g/f/g/d/=c' | %75
!f! _b/d/_e/d/e/d/!f! a/^d/=e/d/e/d/ |!f! ^g/a/b/=c'/d'/c'/ b/a/g/=f/e/d/ | =c3 B3 | %78
 z/ ^A/^c/^f/^a/c'/ e'/c'/a/g/f/e/ | d z z/ d/ [B^e]2 z/ [Be]/ | f/c/f/^a/c'/a/ d'/b/d'/b/^g/^e/ | %81
 f/c/f/^a/c'/a/ d'/b/d'/b/^g/^e/ | (fc^a fca) |!mp! f2 z z2 z | (fc=a fca) | (^gcb gcb) | %86
 (^acc' acc') | b2 z z2 z | b3 ^a3 | =a6 | (eB=g eBg) | (fBa fBa) | (^gBb gBb) | a2 z z2 z | a6 | %95
 a6 | a6 | a6 |!f! g/a/b/a/g/f/ e/f/g/f/e/d/ | c/d/e/d/c/B/ A/B/A/G/F/E/ | DA,D FDF | %101
 A2 A A2!mp! (!fermata!Tc/B/4c/4 | d) z (!fermata!Te/d/4e/4 f) z (a/g/) | (f3 e) z!f! B, | %104
 EB,E GEG | B2 B B2!mp! ^d | (f/e/g/f/a/g/) b z c | (e3!p! d)!f! z z | z df afd'- | %109
 d'/c'/e'/d'/c'/b/ a/b/a/g/f/e/ | d2 d d2 D | GDG BGB | d2 d d z =c- | c/B/d/=c/B/A/ G z =c'- | %114
 c'/b/d'/!courtesy!=c'/b/a/ ^g z d- | d/=c/e/d/c/B/ A z d'- | d'/=c'/e'/d'/c'/b/ ^a z e- | %117
 e/d/f/e/d/c/ B z f- | f/e/g/f/e/d/ c z g | f/d/f/a/d'/c'/ z/ B/d/f/b/a/ | %120
 z/ G/B/d/g/f/ z/ E/G/B/e/d/ | ca[df] [ce]a[df] | [ce]aA A z"_dolce"!mp! (F | G2 A) B(A/G/F/E/) | %124
 (D3 C2) B, | (B,A,)A, A,D[DF] | ([DF]2 [EG]) [CE] z (F | G2 A) B(A/G/F/E/) | (D3 C)(BA) | %129
 (Ad)D [DF] z [CE] | (!fermata![CE]3 D) z (f | g)(g/f/a/g/ b/a/g/f/g/e/) | (d2 e/d/ c2) B | %133
 (BA)A Ad[df] | ([df]2 [eg]) [ce] z (f | g)(g/f/a/g/ b/a/g/f/g/e/) | (d/c/e/d/f/e/ g/f/a/g/b/a/) | %137
 (a3 ^g3) | (=g3 f) !fermata!z!f! F | BFB dBd | f/e/d/c/B/^A/ d/c/B/=A/G/F/ | EB,E GEG | %142
 B/A/G/F/E/^D/ g/f/e/=d/c/B/ | AEA cAc | e/f/g/f/e/d/ c/B/!>(!A/B/G/A/!>)! | %145
!mp! F/A/^G/A/B/A/ d/A/G/A/B/A/ | E/A/^G/A/F/A/ =G/A/F/A/E/A/ | z/ a/^g/a/b/a/ d'/a/g/a/b/a/ | %148
 e/a/^g/a/f/a/ =g/a/f/a/e/a/ |!<(! z/ f/g/a/b/c'/!<)!!f! d'/c'/b/a/g/f/ | %150
 z/ ^d/e/f/g/a/ b/a/g/f/e/=d/ | z/ ^G/B/A/c/B/ d/c/e/d/f/e/ | %152
 !courtesy!=g/f/a/g/b/a/ c'/b/d'/c'/e'/d'/ | =f' z b/c'/ d'/^g/b/d/=f/B/ | d6 | %155
!mf! !fermata![d^f]3{!fermata!f} !fermata!e.d.e | d z!f! ^g/a/ b/a/=g/f/e/d/ | %157
 c/d/^d/e/=f/^f/ g/^g/a/^a/b/=g/ | f z ^g/a/ b/a/=g/f/e/d/ | c/d/^d/e/=f/^f/ g/a/!>(!b/g/e/c/!>)! | %160
 (!courtesy!=dAf dAf) | d2 z z2 z |] %162
V:2
 A,, | D,A,,D, F,D,F, | A,2 A, A,2[K:treble] ([GA-] | [FA]) z ([CA-] [DA]) z[K:bass] [G,E] | %4
 ([A,-D]3 [A,C]) z B,, | E,B,,E, G,E,G, | B,2 B, B,2[K:treble] [FA] | [GB]2 z z2 [A,E] | %8
 ([D-G]3 [DF]) z[K:bass] A,, | D,A,,D, F,D,F, | A,2 A, A,2 (C | D2)[K:treble] (E F2) G | %12
 ([A,-F]3 [A,E]) z[K:bass] B,, | E,B,,E, G,E,G, | B,2 B, B,2 ^D | E2 z z2[K:treble] [A,G] | %16
 (D!p!FA) (DFA) | (CEA) (EGA) | (DFA) (DFA) | (CEA) (EGA) | [FA]2 z [CA]2 z | [DA]2 z A3 | %22
!mp! [FA]2 z [CA]2 z | [DA]2 z A3 |!ped! [FA]2!ped-up! [EG]!ped! [DF]2!ped-up! [CE] | %25
[K:bass]!ped! [B,D]2!ped-up! [A,C]!ped! [G,B,]2!ped-up! [^G,B,] | %26
!ped! A,/E/C/E/!ped-up!D/F/!ped! A,/E/C/E/!ped-up!D/F/ |!ped! [A,E] z [A,,A,]!ped-up! [A,,A,] z z | %28
[K:treble] EAE AcA | ce/d/c/B/ ^A/^G/F/E/D/C/ |[K:bass] B,/^A,/B,F, B,DB, | %31
 DF/E/D/C/ B,/^A,/D/C/B,/=A,/ | ^G,/F,/E,B,, E,G,E, | ^G,B,/C/D/C/ B,/A,/G,/F,/G,/E,/ | %34
 A,2 z [A,C]2 z | ^G,2 A, B,A,G, | A,2 z [A,C]2 z | ^G,2 A, B,A,G, | %38
 A,2 z[K:treble] ([A,C][B,D][CE]) | [DF]2 z ([B,D][CE][DF]) |[K:bass] z [A,C][A,C] z [^G,D][G,D] | %41
 [A,C]A,,A,, A,, z z | z6 |!mp! [E,B,D]3- [E,B,D]2 [D,^G,] | [C,A,]2 z z (C,A,,) | E,3- E, z z | %46
 z6 | [E,B,D]3- [E,B,D]2[K:treble] [D^G] | [CA] z [DA] [CA] z [DA] | (A3 [^GB]3 | [FA]) z z z2 z | %51
[K:bass] z2 ([E,C] [=F,D]2 [^F,^D]) | E3{/x} =D3 |!f! (A,CE) (A,CE) | (E,^G,B,) (E,G,B,) | %55
 (A,CE) (A,CE) | (E,B,D) (E,B,D) |!ped! C2!ped-up! E!ped! C2 E!ped-up! | C2 z z2 :| z | %60
!ped! =C2 E!ped-up!!ped! C2 E!ped-up! | !courtesy!=C2 z z2 z | %62
!ped! [!courtesy!=C_E]3!ped-up!!ped! [CE]3 | [!courtesy!=C_E]2 z z2 z | z2 z z2 =F, | %65
 _B,=F,B, DB,D |[K:treble] =F2 F F2 _B | A/G/=F/G/A/_B/ =c/B/A/B/c/d/ | _e>=fe/d/ =c/d/c/_B/A/G/ | %69
 (^F2 G) (F2 G) | F2 z z2[K:bass] D, | G,D,G, _B,G,B, | D2 D D2[I:staff -1] G | %73
 ^F/E/F/D/_B A[I:staff +1] z[I:staff -1] G | F/E/F/D/=c _B[I:staff +1] z[I:staff -1] A | G3 =F3 | %76
 E2[I:staff +1] z z2 z |!f! A,/E/=F/E/F/E/!f! G,/^E/^F/E/F/E/ |!f! [^F,^F]2 z z2 z | %79
[K:treble]!ped! z/ B,/D/F/ B!ped-up!!ped! z/ G,/B,/D/!ped-up! G | %80
[K:bass]!ped! z!mp! [^A,C][A,C]!ped-up!!mf!!ped! z [B,D][B,D]!ped-up! | %81
!mf!!ped! z [^A,C][A,C]!ped-up!!mf!!ped! z [B,D]!ped-up![B,D] | %82
!ped! [^A,C]2 z!ped-up!!ped! z2 z!ped-up! |[K:treble]!ped! (FC^A!ped-up!!ped! FCA)!ped-up! | %84
!ped! F2 z!ped-up!!ped! z2!ped-up! z |!ped! B6!ped!!ped-up! |!ped! =G3!ped-up!!ped! F3!ped-up! | %87
[K:bass]!ped! (B,F,D!ped-up!!ped! B,F,D)!ped-up! |!ped! (CF,E!ped-up!!ped! CF,E)!ped-up! | %89
!ped! (^DF,F!ped-up!!ped! DF,F)!ped-up! |!ped! E2 z!ped-up!!ped! z2 z!ped-up! | %91
!ped! E3!ped-up!!ped! ^D3!ped-up! |!ped! =D6!ped-up!!ped!!ped-up! | %93
!ped! (CA,E!ped-up!!ped! CA,E)!ped-up! |[K:treble]!ped! DA,=F!ped-up!!ped! ^DA,^F!ped-up! | %95
!ped! EA,G!ped-up!!ped! EA,G!ped-up! |!ped! FA,A!ped-up!!ped! =FA,A!ped-up! | %97
!ped! EA,A!ped-up!!ped! DA,A!ped-up! | [A,C]2 z z2 z | z2 z z2[K:bass]!f! A,, | D,A,,D, F,D,F, | %101
 A,2 A, A,2[K:treble] ([GA-] | [FA]) z ([CA-] [DA]) z[K:bass] [G,E] | ([A,-D]3 [A,C]) z B,, | %104
 E,B,,E, G,E,G, | B,2 B, B,2[K:treble] [FA] | [GB]2 z z2 [A,E] | ([D-G]3 [DF]) z[K:bass] A,, | %108
 D,A,,D, F,D,F, | A,2 A, A,2[I:staff -1] G- | G/F/A/G/F/E/ D/E/D/[I:staff +1]=C/B,/A,/ | %111
 G,G,,B,, D,B,,G,- | G,/F,/A,/G,/F,/E,/ D,/E,/D,/=C,/B,,/A,,/ | G,, z =C- C/B,/D/C/B,/A,/ | %114
 G, z[K:treble] =c- c/B/e/d/c/B/ | A z[K:bass] D- D/=C/E/D/C/B,/ | %116
 A, z[K:treble] d- d/^c/f/e/d/c/ | B z E- E/D/G/F/E/D/ | C z F- F/E/A/G/F/E/ | %119
!ped! D z!ped-up! [EG]!ped! [DF]2!ped-up! [CE] | %120
[K:bass]!ped! [B,D]2!ped-up! [A,C]!ped! [G,B,]2!ped-up! [^G,B,] | %121
!ped! A,/E/C/E/!ped-up!D/F/!ped! A,/E/C/E/!ped-up!D/F/ |!ped! [A,CE]2 [A,,A,]!ped-up! [A,,A,] z z | %123
 z6 |!mp! [A,,E,G,]3- [A,,E,G,]2 [G,,C,] | [F,,D,]2 z z (F,,D,,) | A,,3- A,, z z | z6 | %128
 [A,,E,G,]3- [A,,E,G,]2 [G,,C,] | [F,,D,] z [B,,G,] [A,,A,] z [A,,G,] | ([D,-G,]3 [D,F,]) z z | %131
 z6 |[K:treble] [A,EG]3- [A,EG]2 [B,D^G] | ([CE=G]3 [DF]3) | [A,A]3- [A,A] z z | z6 | [GA]6 | %137
!ped! z!p! [=F^d][Fd]!ped-up!!ped! z [E=d][Ed]!ped-up! | %138
!ped! z !fermata![Bd]!fermata![Bd]!ped-up! [^Ac] z z |[K:bass]!f! F,B,F, B,DB, | %140
 DF/E/D/C/ B,/^A,/D/C/B,/=A,/ | G,/F,/E,B,, E,G,E, | G,B,/A,/G,/F,/ E,/^D,/G/F/E/!courtesy!=D/ | %143
 C/B,/A,E, A,CA, | CE/F/G/F/ E/D/C/B,/C/A,/ |[K:treble] D2 z [DF]2 z | C2 D EDC | [DF]2 z [df]2 z | %148
 c2 d edc | d2 z ([DF][EG][FA]) | [GB]2 z ([EG][FA][GB]) |!f! z [DF][DF]!f! z [DF][DF] | %152
!f! z [DF][DF]!f! z [DF][DF] |!mf! [^G,B,D=F]2 z z2 z | z2 ([A,^F] [_B,G]2 [=B,^G]) | A3{/x} =G3 | %156
!mp! (DFA) (DFA) | (A,CE) (A,CE) | (DFA) (DFA) | (A,EG) (A,EG) | F2 A F2 A | F2 z z2 z |] %162
V:3
 x | x6 | x5[K:treble] x | x5[K:bass] x | x6 | x6 | x5[K:treble] x | x6 | x5[K:bass] x | x6 | x6 | %11
 x2[K:treble] x4 | x5[K:bass] x | x6 | x6 | x5[K:treble] x | x6 | x6 | x6 | x6 | x6 | x3 EFG | x6 | %23
 x3 EFG | x6 |[K:bass] x6 | x6 | x6 |[K:treble] x6 | x6 |[K:bass] x6 | x6 | x6 | x6 | x6 | x6 | %36
 x6 | x6 | x3[K:treble] x3 | x6 |[K:bass] E,3 E,3 | x6 | x6 | x6 | x6 | x6 | x6 | x5[K:treble] x | %48
 x6 | (C6 | D) x5 |[K:bass] x6 | E,6 | x6 | x6 | x6 | x6 | A,3 A,3 | A,2 x3 :| x | A,3 A,3 | %61
 A,2 x4 | =F,2 _G, F,2 G, | !courtesy!=F,2 x4 | x6 | x6 |[K:treble] x6 | x6 | x6 | x6 | %70
 x5[K:bass] x | x6 | x6 | x6 | x6 | x6 | x6 | x6 | x6 |[K:treble] x6 |[K:bass] F,3 F,3 | F,3 F,3 | %82
 F,2 x4 |[K:treble] x6 | x6 | F3 ^E3 | =E6 |[K:bass] x6 | x6 | x6 | x6 | B,6 | =F,3 E,3 | x6 | %94
[K:treble] x6 | x6 | x6 | x6 | x6 | x5[K:bass] x | x6 | x5[K:treble] x | x5[K:bass] x | x6 | x6 | %105
 x5[K:treble] x | x6 | x5[K:bass] x | x6 | x6 | x6 | x6 | x6 | x6 | x2[K:treble] x4 | %115
 x2[K:bass] x4 | x2[K:treble] x4 | x6 | x6 | x6 |[K:bass] x6 | x6 | x6 | x6 | x6 | x6 | x6 | x6 | %128
 x6 | x6 | x6 | x6 |[K:treble] x6 | x6 | x6 | x6 | x6 | x6 | x6 |[K:bass] x6 | x6 | x6 | x6 | x6 | %144
 x6 |[K:treble] x6 | x6 | x6 | x6 | x6 | x6 | A,3 A,3 | A,3 A,3 | x6 | x6 | A,6 | x6 | x6 | x6 | %159
 x6 | D3 D3 | D2 x4 |] %162
V:4
 x | x6 | x6 | x6 | x6 | x6 | x6 | x6 | x6 | x6 | x6 | x6 | x6 | x6 | x6 | x6 | x6 | x6 | x6 | x6 | %20
 x6 | x6 | x6 | x6 | x6 | x6 | x6 | x6 | x6 | x6 | x6 | x6 | x6 | x6 | x6 | x6 | x6 | x6 | x6 | %39
 x6 | x3 Tx2 !arpeggio!x | x6 | x6 | x6 | x6 | A3 ^G x2 | x6 | x6 | x6 | x6 | x6 | x6 | %52
 x3{/x} ^G3 | x6 | x6 | x6 | x6 | x6 | x5 :| x | x6 | x6 | x6 | x6 | x6 | x6 | x6 | x6 | x6 | x6 | %70
 x6 | x6 | x6 | x6 | x6 | x6 | x6 | x6 | x6 | x6 | x6 | x6 | x6 | x6 | x6 | x6 | x6 | x6 | e6 | %89
 =c3 B3 | x6 | x6 | x6 | x6 | _B3 =B3 | ^B3 c3 | d3!<(! ^d3 | e3 f3!<)! | x6 | x6 | x6 | x6 | x6 | %103
 x6 | x6 | x6 | x6 | x6 | x6 | x6 | x6 | x6 | x6 | x6 | x6 | x6 | x6 | x6 | x6 | x6 | x6 | x6 | %122
 x6 | x6 | x6 | x6 | x6 | x6 | x6 | x6 | x6 | x6 | x6 | x6 | x6 | x6 | x6 | x6 | x6 | x6 | x6 | %141
 x6 | x6 | x6 | x6 | x6 | x6 | x6 | x6 | x6 | x6 | x6 | x6 | x6 | x6 | x3{/x} c3 | x6 | x6 | x6 | %159
 x6 | x6 | x6 |] %162

